X: 128
T:Muiñeira dos Garceiras
M:6/8
L:1/8
Q:200
C:Trad.
S:Rep. "Os Garceiras de Melide"
R:Muiñeira
K:C
GAG/"F."c/ | GFE F2 G | "~"E2 C- CGA | GFE F2 G | "~"E2 C "F."GCD | EFE
DCD | "~"E2 C- CEF |
GAG FGF E3- :| EGA/"F."c/ |: A2 G/"F."c/ G2 A | "~"G2 F "F."cFG/"F."c/ |
 G2 F/"F."c/ F2 G | "~"F2 E- EGA/"F."c/ | A2 G/"F."c/G2 A |
"~"G2 F "F."c/FG/"F."c/ | GFE FGF |1 E4 GA :|2 E3 (4CDEF |: GAG FGF | ED
C EDC | B,DE FGF | 
EDC (4CDEF | GAG FGF |EDC GFE | DFG AGF |1 E3 (4CDEF :|2 E3 "F."cEG |: {
C}GEC/"F."c/ CEG |
{C}GFD/"F."c/ DFG | {C}GFD GFD | GEC/"F."c/ CEG | {C}GEC/"F."c/ CEG | {C
}GFD/"F."c/ DFG |{C}GFD GFD |1
C4 EG :|2 C3 ||

